tools/download-figma-icons/icons/solid/lab.svg

<svg width="24" height="24" viewBox="0 0 24 24" fill="none" xmlns="http://www.w3.org/2000/svg">
<path fill-rule="evenodd" clip-rule="evenodd" d="M7.06747 2.3865C7.72672 2.3865 8.26072 1.8525 8.26072 1.19325C8.26072 0.534 7.72672 0 7.06747 0C6.40822 0 5.87422 0.534 5.87422 1.19325C5.87422 1.8525 6.40822 2.3865 7.06747 2.3865ZM1.50037 18.0749V18.0974H10.3421V18.0749C10.3421 16.1099 9.02212 14.3624 7.13287 13.8299C6.80962 13.7324 6.59212 13.4399 6.59212 13.1099V9.70487H5.22787V13.1174C5.22787 13.4474 5.00287 13.7399 4.67962 13.8374C2.80462 14.3774 1.50037 16.1174 1.50037 18.0749ZM8.09212 9.70487V12.5699C10.3204 13.4549 11.8421 15.6374 11.8421 18.0749C11.8421 21.3449 9.17962 23.9999 5.91787 23.9999C2.65462 23.9999 0.000366211 21.3449 0.000366211 18.0749C0.000366211 15.6449 1.50037 13.4624 3.72787 12.5774V9.70487H3.28462C2.87212 9.70487 2.53462 9.36737 2.53462 8.95487C2.53462 8.54237 2.87212 8.20487 3.28462 8.20487H8.45962C8.87212 8.20487 9.20962 8.54237 9.20962 8.95487C9.20962 9.36737 8.87212 9.70487 8.45962 9.70487H8.09212ZM16.7475 13.8525C16.7475 13.9575 16.725 14.0625 16.6725 14.1675L14.8575 18.0975H20.0175L18.18 14.13C18.135 14.0325 18.1125 13.9275 18.1125 13.815V10.98H16.7475V13.8525ZM19.6125 13.65L23.9092 22.935C24.015 23.1675 24.0007 23.4375 23.8575 23.655C23.7217 23.8725 23.4825 24 23.2275 24H11.6475C11.3925 24 11.1525 23.8725 11.0175 23.655C10.8757 23.4375 10.86 23.1675 10.965 22.935L15.2475 13.6875V10.98H14.85C14.4382 10.98 14.1 10.6425 14.1 10.23C14.1 9.8175 14.4382 9.48001 14.85 9.48001H20.025C20.4382 9.48001 20.775 9.8175 20.775 10.23C20.775 10.6425 20.4382 10.98 20.025 10.98H19.6125V13.65ZM11.6878 4.09224C11.6878 4.75149 11.1538 5.28549 10.4945 5.28549C9.83528 5.28549 9.30053 4.75149 9.30053 4.09224C9.30053 3.43299 9.83528 2.89899 10.4945 2.89899C11.1538 2.89899 11.6878 3.43299 11.6878 4.09224ZM17.9982 6.43868C17.9982 7.09793 18.533 7.63193 19.1915 7.63193C19.8507 7.63193 20.3855 7.09793 20.3855 6.43868C20.3855 5.77943 19.8507 5.24543 19.1915 5.24543C18.533 5.24543 17.9982 5.77943 17.9982 6.43868ZM15.9644 5.70682C15.9644 6.36607 15.4296 6.90007 14.7711 6.90007C14.1119 6.90007 13.5771 6.36607 13.5771 5.70682C13.5771 5.04757 14.1119 4.51357 14.7711 4.51357C15.4296 4.51357 15.9644 5.04757 15.9644 5.70682ZM17.1574 3.24712C17.8166 3.24712 18.3514 2.71312 18.3514 2.05387C18.3514 1.39462 17.8166 0.860617 17.1574 0.860617C16.4981 0.860617 15.9641 1.39462 15.9641 2.05387C15.9641 2.71312 16.4981 3.24712 17.1574 3.24712ZM6.34621 5.16413C6.34621 5.82338 5.81221 6.35738 5.15296 6.35738C4.49371 6.35738 3.95971 5.82338 3.95971 5.16413C3.95971 4.50488 4.49371 3.97013 5.15296 3.97013C5.81221 3.97013 6.34621 4.50488 6.34621 5.16413Z" fill="black"/>
</svg>

<svg xmlns="http://www.w3.org/2000/svg" width="24" height="24" fill="none" viewBox="0 0 24 24"><path fill="currentColor" fill-rule="evenodd" d="M7.067 2.387A1.193 1.193 0 1 0 7.068 0a1.193 1.193 0 0 0 0 2.386M1.5 18.075v.022h8.842v-.022a4.426 4.426 0 0 0-3.21-4.245.75.75 0 0 1-.54-.72V9.705H5.228v3.412a.76.76 0 0 1-.548.72 4.42 4.42 0 0 0-3.18 4.238m6.592-8.37v2.865c2.228.885 3.75 3.067 3.75 5.505A5.933 5.933 0 0 1 5.918 24 5.926 5.926 0 0 1 0 18.075c0-2.43 1.5-4.613 3.728-5.498V9.705h-.443a.75.75 0 0 1-.75-.75c0-.413.337-.75.75-.75H8.46c.412 0 .75.337.75.75 0 .412-.338.75-.75.75zm8.655 4.147c0 .105-.022.21-.075.316l-1.815 3.93h5.16L18.18 14.13a.74.74 0 0 1-.067-.315V10.98h-1.366zm2.866-.202 4.296 9.285a.74.74 0 0 1-.051.72.74.74 0 0 1-.63.345h-11.58a.74.74 0 0 1-.63-.345.75.75 0 0 1-.053-.72l4.283-9.247V10.98h-.398a.753.753 0 0 1-.75-.75c0-.412.338-.75.75-.75h5.175c.413 0 .75.338.75.75s-.337.75-.75.75h-.412zm-7.925-9.558a1.193 1.193 0 1 1-2.386 0 1.193 1.193 0 0 1 2.386 0m6.31 2.347a1.193 1.193 0 1 0 2.387 0 1.193 1.193 0 0 0-2.387 0m-2.034-.732a1.193 1.193 0 1 1-2.387 0 1.193 1.193 0 0 1 2.387 0m1.193-2.46A1.194 1.194 0 1 0 17.158.86a1.194 1.194 0 0 0 0 2.387M6.347 5.164a1.193 1.193 0 1 1-2.387 0 1.193 1.193 0 0 1 2.386 0" clip-rule="evenodd"/></svg>
